X:4
T:Miss Dorothy Miller
C:Ryan Canning
R:Slow Air
M:4/4
L:1/8
K:D
[|{ge}(f4 f)A/{d}A/ {ge}f>e | {g}e/d/{g}(B B){GdG}(B B){gc}d {g}d>B | {gde}d/B/{G}(A A){g}(A A){GAG}A {g}A/B/{g}d/B/ | {gef}e2 {ag}(a2 a)A {gAGAG}A>d |
{ge}f2 {g}(f2 f)A/{d}A/ {ge}f>e | {g}e/d/{g}(B B){GdG}(B B){gc}d {g}d>B | {gde}d/B/{G}(A A){g}(A A){GAG}A {g}A/B/{g}d/c/ | {g}(d4 d)A/{d}A/ {g}e>f |
{gf}g2 {a}(g2 g)A/{d}A/ {gf}g>a | g/f/{e}f {g}(f2 f)A/{d}A/ {g}e>f | {gf}g2 {a}(g2 g)A/{d}A/ {g}e/f/g/f/ | {gef}e2 {ag}(a2 a)A {gAGAG}A>d |
{ge}f2 {g}(f2 f)A/{d}A/ {ge}f>e | {g}e/d/{g}(B B){GdG}(B B){gc}d {g}d>B [M:3/4] | {gde}d/B/{G}(A A){g}(A A){GAG}A [M:5/4] "Strathspey Tempo"| {g}AB {g}d4 {g}d<(c c2) |]

